X: 609
T: The strawberry blossom
C: anon.
O: Ireland
B: Francis O'Neill: "The Dance Music of Ireland" (1907) no. 609
R: Reel
Z: Transcribed by Frank Nordberg - http://www.musicaviva.com
F: http://www.musicaviva.com/abc/tunes/ireland/oneill-1001/oneill-1001-060
9.abc
m: Tn2 = (3n/o/n/ m/n/
M: C|
L: 1/8
K: D
fedf edBd|fd({e}d)c d2ag|fedf efBc|dBAF TE2D2|fedf edBd|fd({e}d)c defg|af
ge fdec|dBAF TE2D2 H ||
faab afdf|abaf gfeg|faab afdf|gfed TB2A2|faab afdf|abaf gfeg|fa (3(aaa) g
b (3(bbb)|gfef gbag "_D.C." |]
W:
W:
W: From Musica Viva - http://www.musicaviva.com
W: the Internet center for free sheet music downloads.


